lib/brands/icons/freebsd.svg

<svg xmlns="http://www.w3.org/2000/svg" fill="none" aria-hidden="true" viewBox="0 0 48 48"><g id="freebsd-Icon"><path id="bg" fill="white" d="M45 24C45 35.592 35.6025 45 24 45C12.3975 45 3 35.592 3 24C3 12.3975 12.3975 3 24 3C35.6025 3 45 12.3975 45 24Z"/><path id="freebsd" fill="#B5010F" d="M37.1912 10.9608C38.6225 12.4138 34.6548 18.8007 33.984 19.4823C33.3132 20.1626 31.6095 19.5367 30.1789 18.0834C28.7477 16.6304 28.1311 14.8996 28.8019 14.2183C29.4723 13.5367 35.7603 9.50715 37.1912 10.9608Z"/><g id="Subtract"><path fill="#B5010F" d="M11.4138 8.33211C9.95717 7.49263 7.88438 6.55887 7.22499 7.22859C6.5569 7.90693 7.50995 10.0596 8.34518 11.5418C9.08847 10.2293 10.1457 9.12445 11.4138 8.33211Z"/><path fill="#B5010F" d="M17.4444 8.4444C17.8888 8 18.9275 8.16967 18.9275 8.16967L19.0373 7.87902C19.0373 7.87902 18 7.40628 16.2291 7.40628C11.4455 7.40628 7.56752 11.3444 7.56752 16.2034C7.56752 21.0614 11.4455 25 16.2291 25C21.0126 25 24.8904 21.0614 24.8904 16.2034C24.8904 14.9915 24.6485 13.838 24.2121 12.7879C23.9966 13.5113 23.8309 13.768 23.2994 14.2994C22.5017 15.0972 20.5443 14.4331 18.9275 12.8163C17.3107 11.1995 16.6467 9.24212 17.4444 8.4444Z"/></g></g></svg>

<svg xmlns="http://www.w3.org/2000/svg" fill="none" aria-hidden="true" viewBox="0 0 48 48"><path fill="#fff" d="M45 24c0 11.592-9.398 21-21 21S3 35.592 3 24C3 12.398 12.398 3 24 3s21 9.398 21 21Z"/><path fill="#B5010F" d="M37.191 10.96c1.431 1.454-2.536 7.84-3.207 8.522-.67.68-2.375.055-3.805-1.399-1.431-1.453-2.048-3.183-1.377-3.865.67-.681 6.958-4.71 8.39-3.257Z"/><g fill="#B5010F"><path d="M11.414 8.332c-1.457-.84-3.53-1.773-4.189-1.103-.668.678.285 2.83 1.12 4.313a9.035 9.035 0 0 1 3.069-3.21Z"/><path d="M17.444 8.444c.445-.444 1.483-.274 1.483-.274l.11-.291S18 7.406 16.23 7.406c-4.784 0-8.661 3.938-8.661 8.797 0 4.858 3.877 8.797 8.661 8.797s8.661-3.939 8.661-8.797a8.88 8.88 0 0 0-.678-3.415c-.215.723-.381.98-.913 1.511-.797.798-2.755.134-4.372-1.483-1.616-1.617-2.28-3.574-1.483-4.372Z"/></g></svg>
